X:1
T:A dispetto de' venti
T:Constantijn Huygens
T:A dispetto de' venti
T:Serenata
C:Constantijn Huygens
%%score 1 2 { ( 3 5 ) | 4 }
L:1/8
Q:1/4=52
M:4/4
K:G
V:1 treble nm="Soprano" snm="S"
V:2 treble transpose=-12 nm="Viola da Gamba" snm="V.Gam."
V:3 treble nm="Harpsichord" snm="Hpschd."
V:5 treble 
V:4 bass 
V:1
 z2 GG G2 DD | E2 E2 z2 z C | C6 C/D/E/C/ | G2 G2 z GAA | BB z2 z2 BB | B6 AG | c2 _B2 AA d2- | %7
w: A di- spet- to de'|ven- ti, Di|tuo- * * * *|* no e di ba-|le- no, Sto sfo-|gan- do i tor-|men- ti, sto sfo- gan-|
 d2 cc B>B _Bc | A>A A2 z GG=F | E2 e2 eedd | ^c>B A2 z2 z G | F2 =FE E4 | D8 :: z2 A2 A4 | %14
w: * do i tor- men- ti, Che mi|strac- cia- no, mi strac- cia-|no, tor- men- ti che mi|strac- cia- no, mi|strac- cia- no il se-|no.|Ma tu,|
 z2 Ad B2 A2 | z4 z2 F2 | F2 EA A2 (^G2 | A4) z2 z A | AAAG BB c2- | c2 cc c2 (B2 | c2) e2 A4 | %21
w: ma tu dor- mi,|tu|dor- mi e non o- di,|_ Se|for- se non con- sen- ti al- le|_ tu- e lo- di.|_ Ahi cru-|
 F2 (d4 =F)G | E2 E2 z2 =f2 | ^c2 A2 d4 | z2 z g ee d-d/4 e/4d/4c/4 | B3 B A(G F2) | z4 d2 dd | %27
w: da, cru- * da|Fil- li, ahi|cru- da, ahi,|ahi cru- da Fil- * li, _ _|_ non sen- ti, _|Fil- li, non|
 d2 d2 z2 D2 | F2 G2 G2 (F2 | G8) :| %30
w: sen- ti I|miei la- men- ti.|_|
V:2
 G4 B4 | c4 c4 | c8 | c4 B2 A2 | G4 g4 | g4 e4- | e4 =f4 | !courtesy!^f4 g2 G2 | d4 B4 | %9
 c2 c'2 ^g4 | a4 A4 | A8 | d8 :: d8 | d8 | z4 d4 | d2 ^c2 B4 | A4 a4 | f2 d2 g2 e2 | c4 g4 | %20
 e4 ^c4 | d4 G4 | A8 | a4 f4 | g4 c2 d2 | e2 B2 c2 d2 | d8 | d8 | d8 | G8 :| %30
V:3
 [B,DG]4 [B,D]4 | [G,CE]4 z4 | [A,C]4 [A,D]2 [CE]2 | [CEG]2 [CEG]2 [B,DG]2 [CEA]2 | %4
 [DGB]2 z2 [EGB]2 z2 | [DGB]4 [B,EG]4 | [CEG]4 [DA]4 | [DFA]4 [DG]4 | [A,D=F]4 [B,DG]4 | %9
 [CEG]4 [D^GB]4 | [EA]4 [EA]2 [EG]2 | [FA]2 [=FA]E A2 G2 | [A,DF]8 :: A2 A2 A2 A2 | %14
 A2 A2 [GA]2 [FA]2 | A,2 A,2 A,2 A2 | [FA]2 [EA]2 [EA]2 [B,E^G]2 | [^CEA]2 G2 [DF]2 [CE]2 | %18
 [DF]2 [DF]2 [DG]2 [CEG]2 | [CEG]4 [DG]4 | [EGc]4 [^CEA]2 G2 | [DF]2 [DF]2 [B,D=F]2 [G,B,DF]2 | %22
 [A,CE]2 [CE]2 [C=F]2 [CF]2 | [^CEA]4 [DFA]4 | [DGBd]4 [EGc][EGc][DFA] z | %25
 [B,EG]2 [DG]2 [CEA]2 [FA]2 | [A,F]2 [B,G]2 [CA]2 [DB]2 | [Ec]2 [Fd]2 z4 | B2 G2 cBAB | %29
 cB/c/ BA B4 :| %30
V:4
 G,,4 B,,4 | C,4 C,4 | C,8 | C,4 B,,2 A,,2 | G,,4 G,4 | G,4 E,4- | E,4 =F,4 | %7
 !courtesy!^F,4 G,2 G,,2 | D,4 B,,4 | C,2 C2 ^G,4 | A,4 A,,4 | A,,8 | D,8 :: D,8 | D,8 | z4 D,4 | %16
 D,2 ^C,2 B,,4 | A,,4 A,4 | F,2 D,2 G,2 E,2 | C,4 G,4 | E,4 ^C,4 | D,4 G,,4 | A,,8 | A,4 F,4 | %24
 G,4 C,2 D,2 | E,2 B,,2 C,2 D,2 | D,8 | D,8 | D,8 | G,,8 :| %30
V:5
 x8 | x8 | x8 | x8 | x8 | x8 | x8 | x8 | x8 | x8 | z4 ^C4 | D2 ^C6 | x8 :: x8 | x8 | x8 | x8 | x8 | %18
 x8 | x8 | x8 | x8 | x8 | x8 | x8 | x8 | x8 | x8 | D4 [DA]4 | [DG]4 [DG]4 :| %30

